dist/img/svg/whatsapp.svg

<svg width="49" height="49" viewBox="0 0 49 49" fill="none" xmlns="http://www.w3.org/2000/svg">
<path d="M14.657 41.5282L4.8855 43.9718L7.32837 35.4218C6.10693 33.3861 4.64121 27.3604 3.66406 24.4289C9.77124 -4.88554 25.6499 3.66444 32.9785 3.66444C40.3071 3.66444 51.3 23.2066 41.5286 37.8639C33.7114 49.5897 20.357 45.1925 14.657 41.5282Z M36.2659 30.6769C35.7595 31.9996 33.2838 33.263 32.2023 33.3829C31.1208 33.5029 31.1239 34.2257 24.9677 31.9996C18.8724 29.7142 15.0058 23.8816 14.6885 23.4609C14.3759 23.0996 12.2129 20.3936 12.2129 17.6268C12.2129 14.8601 13.7351 13.4797 14.3072 12.9361C14.8792 12.3926 15.5122 12.2148 15.8935 12.2148C16.2749 12.2148 16.7187 12.2756 17.036 12.2756C17.4158 12.2756 17.8612 12.0949 18.3676 13.2368C18.8739 14.3788 20.0868 17.147 20.2087 17.4476C20.3306 17.7483 20.4619 18.049 20.2727 18.4089C20.1066 18.7423 19.9155 19.0641 19.7007 19.3716C19.3881 19.6678 19.0662 20.0929 18.813 20.3328C18.5004 20.6291 18.1785 20.9342 18.5582 21.4763C18.938 22.0183 20.1446 23.8816 21.9216 25.3849C24.2065 27.3104 26.1742 27.9102 26.7447 28.2109C27.3151 28.5116 27.6965 28.4523 28.0138 28.0909C28.3951 27.731 29.5376 26.4617 29.9174 25.8692C30.2987 25.3272 30.7426 25.3879 31.2505 25.573C31.8241 25.7463 34.7373 27.1312 35.3781 27.4274C35.9486 27.7236 36.394 27.848 36.5206 28.0879C36.7113 28.2109 36.7113 29.3528 36.2659 30.6769Z" fill-rule="evenodd" fill="currentColor"/>
<path d="M24.8943 0C11.672 0 0.931128 10.6291 0.931128 23.8072C0.927173 28.1444 2.10779 32.4002 4.34526 36.1141L0 48.8574L13.285 44.6367C16.8362 46.6091 20.8333 47.6364 24.8943 47.6204C38.1166 47.6204 48.8574 36.9913 48.8574 23.8133C48.8574 10.6352 38.1166 0 24.8943 0ZM24.957 43.8223C21.0091 43.8476 17.1423 42.7011 13.8446 40.5277L6.08367 43.0139L8.62936 35.5554C6.13018 32.1494 4.78197 28.0336 4.78101 23.8072C4.78101 12.7433 13.7819 3.79206 24.8943 3.79206C36.0066 3.79206 45.0702 12.7433 45.1314 23.8072C45.1314 34.871 36.0678 43.8223 24.957 43.8223Z" fill="currentColor"/>
</svg>

<svg width="49" height="49" viewBox="0 0 49 49" fill="none" xmlns="http://www.w3.org/2000/svg"><path d="M14.657 41.528l-9.771 2.444 2.442-8.55c-1.221-2.036-2.687-8.062-3.664-10.993C9.771-4.886 25.65 3.664 32.978 3.664c7.33 0 18.322 19.543 8.55 34.2-7.817 11.726-21.171 7.329-26.871 3.664zm21.609-10.851c-.506 1.323-2.982 2.586-4.064 2.706-1.081.12-1.078.843-7.234-1.383-6.096-2.286-9.962-8.118-10.28-8.54-.312-.36-2.475-3.066-2.475-5.833 0-2.767 1.522-4.147 2.094-4.69.572-.544 1.205-.722 1.586-.722.382 0 .826.06 1.143.06.38 0 .825-.18 1.332.962a441.41 441.41 0 011.84 4.21c.123.301.254.602.065.962a7.597 7.597 0 01-.572.963c-.313.296-.635.72-.888.96-.313.297-.634.602-.255 1.144.38.542 1.587 2.406 3.364 3.909 2.284 1.925 4.252 2.525 4.823 2.826.57.3.951.241 1.269-.12.381-.36 1.524-1.63 1.903-2.222.382-.542.826-.481 1.333-.296.574.173 3.487 1.558 4.128 1.854.57.297 1.016.421 1.143.66.19.124.19 1.266-.255 2.59z" fill-rule="evenodd" fill="currentColor"/><path d="M24.894 0C11.672 0 .931 10.63.931 23.807a23.807 23.807 0 003.414 12.307L0 48.857l13.285-4.22c3.551 1.972 7.548 3 11.61 2.983 13.222 0 23.962-10.629 23.962-23.807C48.857 10.635 38.117 0 24.894 0zm.063 43.822a19.96 19.96 0 01-11.112-3.294l-7.761 2.486 2.545-7.459a19.867 19.867 0 01-3.848-11.748c0-11.064 9-20.015 20.113-20.015s20.176 8.951 20.237 20.015c0 11.064-9.063 20.015-20.174 20.015z" fill="currentColor"/></svg>
